X: 582
T: Ace And Deuce Of Pipering, The
R: hornpipe
M: 4/4
K: Amixolydian
d3c|:BAAG ~A3c|BAAG ~A3B|(3cBA dz (3cBA dz|(3cBA dB c3d|
eze fd (3ege fd|(3efg fd edBd|gzg ge (3fgf fd|(3efg fd edBd|(3cBA dB cAFA|
~G3B dGBG|1 Az af (3gfe dB|GABc d3c:|2 Az af (3gfe dc|B2A2A3B||
|:BAAG A3c|BAAG A3c|Bz gef2g2|B2 ~g3 fed|e2a2 abag|
e2 ab aged|Bzge f2gf|eafb afab|babg aged|(3cBA dB cAFA|
~G3B dGBG|1 Az af (3gfe dB|GABc d3c:|2 Az af (3gfe dc|B2A2A3c||
|:BAAG A2Ac|EAAG A3c|Bzgz (3gfe df|(3gfe dBc3d|
(3efg fd edBd|(3cBA dB c2BA|(3gfg eg fedf|egfd edBd|(3cBA dB cAFA|
~G3B dGBG|1 Az af (3gfe dB|GABc d3c:|2 Az af (3gfe dc|B2A2A3z||

